src/images/backend-logistics-support.svg

<svg width="155" height="168" fill="none" xmlns="http://www.w3.org/2000/svg"><path d="M7.9063 50.248c.58 4.26 2.46 8.48 5.91 10.87a20.432 20.432 0 0 0 7.83 2.8 122.0955 122.0955 0 0 0 18.38 2.18c5 .21 9.83 1.07 14.33-1.93a14.58 14.58 0 0 0 5.88-8 22.8792 22.8792 0 0 0 .79-6.33c0-2.54-.2-5.08-.37-7.58-8.36-1.34-17.45-.67-25.94-1.43-8.49-.76-17.07-1.82-25.53-3.14-.24 0-.55 0-.66.19-.11.19-1.19 8.13-.62 12.37Z" fill="#D9D9D9" stroke="#1B383C" stroke-width="2" stroke-miterlimit="10"/><path d="M5.8262 33.7979v-.33a1.2403 1.2403 0 0 1 1.34-1.14l9.58.89v-.07a2.56 2.56 0 0 1 2.11-2.33 7.8698 7.8698 0 0 1 3.3.23c8.69 1.79 17.69 1.09 26.58 1.21a10.9308 10.9308 0 0 1 4.48.71 5.9407 5.9407 0 0 1 2.9 3.89l7.28.67a1.2097 1.2097 0 0 1 .8277.4516 1.2104 1.2104 0 0 1 .2523.9084l-.36 3.41a1.2702 1.2702 0 0 1-1.36 1.13l-56.18-5.2a1.2184 1.2184 0 0 1-.8243-.4542 1.22 1.22 0 0 1-.2557-.9058 14.569 14.569 0 0 0 .33-3.07Z" fill="#FF9820" stroke="#1B383C" stroke-width="2" stroke-miterlimit="10"/><path d="M30.5562 27.748a11.1289 11.1289 0 0 0 5.32 7 14.5495 14.5495 0 0 0 5.82 1.13 85.5428 85.5428 0 0 0 13.19-.43c3.52-.38 7-.3 9.89-2.89a10.5002 10.5002 0 0 0 3.25-6.28c.1497-1.5.0993-3.0133-.15-4.5-.26-1.79-.69-3.56-1.08-5.31-6 0-12.36 1.4-18.43 1.77-6.07.37-12.19.52-18.29.51-.17 0-.39 0-.44.21a39.2533 39.2533 0 0 0 .92 8.79Z" fill="#D9D9D9" stroke="#1B383C" stroke-width="2" stroke-miterlimit="10"/><path d="M27.3262 16.3781v-.24a.9008.9008 0 0 1 .2207-.6448.9008.9008 0 0 1 .6093-.3052l6.87-.39v-.06a1.8202 1.8202 0 0 1 1.24-1.86 5.6304 5.6304 0 0 1 2.35-.19c6.31.33 12.58-1.13 18.86-2a7.9303 7.9303 0 0 1 3.22 0 4.2487 4.2487 0 0 1 1.4939.9519c.4256.4186.7582.9223.9761 1.4781l5.1901-.3a.8487.8487 0 0 1 .6329.2199.8494.8494 0 0 1 .277.6101l.11 2.45a.91.91 0 0 1-.83.94l-40.22 2.38a.8696.8696 0 0 1-.6275-.237.8696.8696 0 0 1-.2725-.613 9.9949 9.9949 0 0 0-.1-2.19Z" fill="#FF9820" stroke="#1B383C" stroke-width="2" stroke-miterlimit="10"/><path d="M59.3361 90.5881c1.85 5.36 5.38 10.3399 10.46 12.5499 3.39 1.47 7.18 1.61 10.87 1.61 8.1572-.025 16.3007-.67 24.3599-1.93 6.5-1 13-1.16 18.07-6.1999a19.369 19.369 0 0 0 5.54-12 30.602 30.602 0 0 0-.67-8.32c-.63-3.3-1.57-6.54-2.44-9.74-11.17.43-22.77 3.65-33.9999 4.86-11.23 1.21-22.5 2.06-33.78 2.59-.32 0-.72.1-.8.42-.08.32.55 10.8 2.39 16.16Z" fill="#D9D9D9" stroke="#1B383C" stroke-width="2" stroke-miterlimit="10"/><path d="M52.3962 69.8081v-.44a1.65 1.65 0 0 1 1.45-1.82l12.64-1.32v-.09a3.3702 3.3702 0 0 1 2.14-3.56 10.5203 10.5203 0 0 1 4.26-.57c11.72.08 23.21-3.16 34.7498-5.3a14.3904 14.3904 0 0 1 6-.23c1.57.37 4.19 2.34 4.77 4.28l9.6-1a1.5816 1.5816 0 0 1 1.19.3607c.163.1374.297.3065.394.4972.096.1907.153.3989.166.6121l.41 4.52c.04.4323-.09.863-.363 1.2009a1.6716 1.6716 0 0 1-1.097.6091l-74.1998 7.8a1.6186 1.6186 0 0 1-1.185-.3809 1.6205 1.6205 0 0 1-.565-1.1091 19.6 19.6 0 0 0-.36-4.06Z" fill="#FF9820" stroke="#1B383C" stroke-width="2" stroke-miterlimit="10"/><path d="M78.1862 90.8181a15.3313 15.3313 0 0 0 1.17 3.13 4.4906 4.4906 0 0 0 1.22 1.63c1.27 1 3.13.53 4.43-.37a7.6605 7.6605 0 0 0 2.65-3.2c1.68-4 1.37-12-4.24-12.72-3.5-.44-5.28 4.14-5.59 7a12.6408 12.6408 0 0 0 .36 4.53ZM96.4064 90.5979c.1614.314.3523.612.57.89a4.9993 4.9993 0 0 0 4.6496 2 5.426 5.426 0 0 0 2.24-1.1664 5.4168 5.4168 0 0 0 1.47-2.0536 15.124 15.124 0 0 0 1-5c.3-3.46-1.41-7.54-5.22-8.35-3.3096-.71-4.2596 1.63-4.8696 4.3a24.5078 24.5078 0 0 0-.8 5.24 8.8186 8.8186 0 0 0 .96 4.14Z" fill="#fff" stroke="#1B383C" stroke-width="2" stroke-miterlimit="10"/><path d="M104.416 43.148c0 3.63 1 7.39 3.6 9.81a17.3703 17.3703 0 0 0 6.21 3.3 101.6678 101.6678 0 0 0 15.1 4.08c4.13.78 8.08 2.1 12.21.15a12.3583 12.3583 0 0 0 5.9-6 19.4134 19.4134 0 0 0 1.39-5.15c.33-2.12.46-4.27.62-6.39-6.82-2.14-14.5-2.69-21.5-4.38s-14-3.63-20.92-5.75c-.19-.06-.45-.1-.57.08-.12.18-2 6.63-2.04 10.25Z" fill="#D9D9D9" stroke="#1B383C" stroke-width="2" stroke-miterlimit="10"/><path d="m104.706 29.1481.07-.28a.9927.9927 0 0 1 .158-.3831.9875.9875 0 0 1 .299-.2862 1.003 1.003 0 0 1 .39-.1403.999.999 0 0 1 .413.0296l7.89 1.92a.1219.1219 0 0 0 0-.06c.104-.4611.355-.8756.716-1.1807.361-.305.812-.4839 1.284-.5093a6.8476 6.8476 0 0 1 2.73.6c7 2.57 14.65 3.08 22.07 4.27a9.4062 9.4062 0 0 1 3.65 1.15 5.002 5.002 0 0 1 1.39 1.589c.345.6225.553 1.3116.61 2.021l6 1.45c.135.0298.262.0872.374.1686.111.0814.205.185.274.3043.07.1193.114.2517.13.3889.015.1372.003.2762-.038.4082l-.72 2.81a1.0706 1.0706 0 0 1-1.27.77l-46.34-11.25a1.0054 1.0054 0 0 1-.374-.1687.9986.9986 0 0 1-.274-.3043.9784.9784 0 0 1-.129-.3889.9886.9886 0 0 1 .037-.4081c.307-.8147.529-1.6593.66-2.52Z" fill="#FF9820" stroke="#1B383C" stroke-width="2" stroke-miterlimit="10"/><path d="M56.0761 54.1081c1.6 4 4.45 7.62 8.37 9.1a20.2606 20.2606 0 0 0 8.28.8 119.9108 119.9108 0 0 0 18.37-2.36c4.87-1 9.7899-1.35 13.4299-5.35a14.6378 14.6378 0 0 0 3.75-9.24 23.7006 23.7006 0 0 0-.81-6.27c-.6-2.47-1.43-4.88-2.21-7.27-8.4299.74-17.0799 3.6-25.5099 4.93-8.43 1.33-17 2.35-25.49 3.15-.24 0-.54.1-.59.34-.05.24.82 8.18 2.41 12.17Z" fill="#D9D9D9" stroke="#1B383C" stroke-width="2" stroke-miterlimit="10"/><path d="M50.0261 38.658v-.34a1.2297 1.2297 0 0 1 1-1.42l9.5-1.47v-.07a2.5602 2.5602 0 0 1 1.5-2.77 7.7495 7.7495 0 0 1 3.24-.58c8.86-.37 17.43-3.25 26.08-5.3a10.9992 10.9992 0 0 1 4.51-.39 6.0004 6.0004 0 0 1 3.77 3.06l7.2099-1.11a1.202 1.202 0 0 1 .471.0164c.154.0364.299.1031.427.196a1.1976 1.1976 0 0 1 .482.7876l.48 3.4c.047.3197-.03.6455-.216.9098a1.2606 1.2606 0 0 1-.784.5102l-55.8299 8.68a1.2194 1.2194 0 0 1-.9122-.2408 1.2188 1.2188 0 0 1-.4678-.8192 14.7487 14.7487 0 0 0-.46-3.05Z" fill="#FF9820" stroke="#1B383C" stroke-width="2" stroke-miterlimit="10"/><path d="M81.2462 81.228a3.54 3.54 0 0 1 2.37-.83 2.5904 2.5904 0 0 1 1.9.56 3.2305 3.2305 0 0 1 .72 2.05c.11 1.2.16 2.56-.64 3.46-1.09 1.22-3.44 2.62-4.6 1.18-1.16-1.44-1.11-5.13.25-6.42ZM97.566 83.078c-.39-1.54-.64-3.42.53-4.49a3.6606 3.6606 0 0 1 2.51-.78 4.0517 4.0517 0 0 1 2.12.47 3.509 3.509 0 0 1 1.005 1.0219c.262.406.437.8615.515 1.3381.158.9486.182 1.9148.07 2.87a2.2949 2.2949 0 0 1-.15.79 1.892 1.892 0 0 1-.83.75c-2.83 1.62-4.92 1.34-5.77-1.97Z" fill="#1B383C" stroke="#1B383C" stroke-width="2" stroke-miterlimit="10"/><path d="M57.8862 87.4079c-11-.89-22-4-31.27-10s-16.93-14.76-20.59-25.2c-2.2-6.44-2.9-13.3-3.58-20.08l-1.32-13.12a8.71 8.71 0 0 1 .48-4.67 5.7195 5.7195 0 0 1 4.11-2.93 2.0503 2.0503 0 0 1 2.16.42c.205.3137.3.6865.27 1.06a5.5398 5.5398 0 0 1-.91 2.64 14.3402 14.3402 0 0 1-3.9 4.27M127.586 78.828c14.34-7 21.3-23.61 24.11-39.33a129.717 129.717 0 0 0 1.21-37.43 4.3584 4.3584 0 0 0-2.613-1.0611 4.3633 4.3633 0 0 0-2.717.7611 5.3783 5.3783 0 0 0-1.943 2.2141 5.3786 5.3786 0 0 0-.487 2.906c.05.6852.296 1.3416.71 1.89.242.274.537.4963.867.6534a2.71 2.71 0 0 0 2.126.087c.342-.1296.654-.327.917-.5805" stroke="#1B383C" stroke-width="2" stroke-miterlimit="10" stroke-linecap="round"/><path d="M86.546 17.868c.52 3.42 2.1 6.8 4.91 8.67a16.3385 16.3385 0 0 0 6.35 2.15 97.3023 97.3023 0 0 0 14.85 1.5c4 .1 7.94.72 11.52-1.75a11.7985 11.7985 0 0 0 4.63-6.58c.395-1.6598.566-3.3648.51-5.07 0-2-.23-4.09-.41-6.1-6.75-1-14.07-.29-20.93-.79-6.86-.5-13.75-1.25-20.58-2.17-.19 0-.45 0-.53.16a44.0046 44.0046 0 0 0-.32 9.98Z" fill="#D9D9D9" stroke="#1B383C" stroke-width="2" stroke-miterlimit="10"/><path d="M84.6363 4.6381v-.27a.9997.9997 0 0 1 1.06-.93l7.76.57v-.06a2.0599 2.0599 0 0 1 1.67-1.9 6.47 6.47 0 0 1 2.66.13c6.9997 1.33 14.2797.63 21.4397.6a8.8486 8.8486 0 0 1 3.62.52 4.7569 4.7569 0 0 1 2.39 3.09l5.87.44c.262.0254.504.153.672.3552a.9944.9944 0 0 1 .228.7248l-.25 2.75a.9958.9958 0 0 1-.102.3778c-.059.1179-.14.2232-.239.3096a1.0011 1.0011 0 0 1-.729.2426l-45.3797-3.39a1 1 0 0 1-.89-1.08 12.232 12.232 0 0 0 .22-2.48Z" fill="#FF9820" stroke="#1B383C" stroke-width="2" stroke-miterlimit="10"/><path d="m101.936 103.518 5.57 25.49c.517 2.054.832 4.154.94 6.27a32.2034 32.2034 0 0 1-1.42 8.57l-3.24 12.47c-.57 2.19-1.14 4.5-.59 6.7.55 2.2 2.66 4.19 4.89 3.79M86.2864 105.628l4 22.57a8.5399 8.5399 0 0 1 .06 4.14c-.8 2.41-3.47 3.58-5.86 4.45l-21.78 8a13.88 13.88 0 0 0 2.14 9.28" stroke="#1B383C" stroke-width="2" stroke-miterlimit="10" stroke-linecap="round"/><path d="M100.716 99.148a9.3107 9.3107 0 0 0 4.877-.7775 9.3059 9.3059 0 0 0 3.793-3.1625" stroke="#1B383C" stroke-width="2" stroke-miterlimit="10"/></svg>

<svg width="155" height="168" viewBox="0 0 155 168" fill="none" xmlns="http://www.w3.org/2000/svg">
<path d="M7.90632 50.248C8.48632 54.508 10.3663 58.728 13.8163 61.118C16.2068 62.5782 18.872 63.5313 21.6463 63.918C27.709 65.1087 33.8533 65.8374 40.0263 66.098C45.0263 66.308 49.8563 67.168 54.3563 64.168C57.1919 62.2713 59.2726 59.4404 60.2363 56.168C60.7939 54.1052 61.0599 51.9745 61.0263 49.838C61.0263 47.298 60.8263 44.758 60.6563 42.258C52.2963 40.918 43.2063 41.588 34.7163 40.828C26.2263 40.068 17.6463 39.008 9.18632 37.688C8.94632 37.688 8.63632 37.688 8.52632 37.878C8.41632 38.068 7.33632 46.008 7.90632 50.248Z" fill="#D9D9D9" stroke="#1B383C" stroke-width="2" stroke-miterlimit="10"/>
<path d="M5.8262 33.7979V33.4679C5.83882 33.3049 5.88355 33.146 5.95783 33.0003C6.03211 32.8546 6.13447 32.7251 6.25901 32.6191C6.38356 32.5132 6.52783 32.4329 6.68352 32.3829C6.83922 32.3329 7.00326 32.3142 7.1662 32.3279L16.7462 33.2179V33.1479C16.7888 32.5802 17.0193 32.0429 17.4015 31.6209C17.7836 31.199 18.2955 30.9164 18.8562 30.8179C19.9601 30.6599 21.0849 30.7383 22.1562 31.0479C30.8462 32.8379 39.8462 32.1379 48.7362 32.2579C50.2628 32.1787 51.7889 32.4206 53.2162 32.9679C53.9461 33.3757 54.5818 33.933 55.0815 34.6033C55.5812 35.2737 55.9338 36.0419 56.1162 36.8579L63.3962 37.5279C63.5574 37.544 63.7137 37.5922 63.8558 37.6698C63.998 37.7473 64.1231 37.8527 64.2239 37.9795C64.3246 38.1063 64.3988 38.2521 64.4422 38.4081C64.4855 38.5642 64.4971 38.7273 64.4762 38.8879L64.1162 42.2979C64.0808 42.6261 63.919 42.9275 63.6652 43.1385C63.4113 43.3494 63.0853 43.4532 62.7562 43.4279L6.5762 38.2279C6.41557 38.2106 6.25999 38.1615 6.11849 38.0835C5.97699 38.0055 5.85238 37.9002 5.75191 37.7737C5.65144 37.6472 5.57709 37.5019 5.5332 37.3464C5.4893 37.191 5.47673 37.0283 5.4962 36.8679C5.71463 35.8592 5.82525 34.8301 5.8262 33.7979Z" fill="#FF9820" stroke="#1B383C" stroke-width="2" stroke-miterlimit="10"/>
<path d="M30.5562 27.748C30.9211 29.2149 31.581 30.5921 32.4957 31.7956C33.4103 32.9991 34.5606 34.0037 35.8762 34.748C37.7181 35.5201 39.6992 35.9048 41.6962 35.878C46.0974 36.0745 50.5072 35.9308 54.8862 35.448C58.4062 35.068 61.8862 35.148 64.7762 32.558C66.553 30.9034 67.7015 28.6841 68.0262 26.278C68.1759 24.778 68.1255 23.2647 67.8762 21.778C67.6162 19.988 67.1862 18.218 66.7962 16.468C60.7962 16.468 54.4362 17.868 48.3662 18.238C42.2962 18.608 36.1762 18.758 30.0762 18.748C29.9062 18.748 29.6862 18.748 29.6362 18.958C29.611 21.9133 29.9196 24.862 30.5562 27.748Z" fill="#D9D9D9" stroke="#1B383C" stroke-width="2" stroke-miterlimit="10"/>
<path d="M27.3262 16.3781V16.1381C27.3125 15.9026 27.3917 15.671 27.5469 15.4933C27.7022 15.3157 27.921 15.2061 28.1562 15.1881L35.0262 14.7981C35.0262 14.7981 35.0262 14.7981 35.0262 14.7381C34.9966 14.3343 35.1024 13.9322 35.327 13.5953C35.5516 13.2584 35.8821 13.006 36.2662 12.8781C37.0274 12.6496 37.8283 12.5849 38.6162 12.6881C44.9262 13.0181 51.1962 11.5581 57.4762 10.6881C58.5383 10.4679 59.6342 10.4679 60.6962 10.6881C61.2555 10.8969 61.7646 11.2213 62.1901 11.64C62.6157 12.0586 62.9483 12.5623 63.1662 13.1181L68.3563 12.8181C68.4712 12.8099 68.5865 12.8252 68.6953 12.863C68.8041 12.9008 68.9041 12.9603 68.9892 13.038C69.0743 13.1156 69.1428 13.2097 69.1904 13.3146C69.238 13.4195 69.2638 13.5329 69.2662 13.6481L69.3762 16.0981C69.3848 16.3313 69.3035 16.5589 69.149 16.7339C68.9945 16.9088 68.7787 17.0177 68.5462 17.0381L28.3262 19.4181C28.2112 19.4221 28.0964 19.4032 27.9887 19.3625C27.881 19.3219 27.7824 19.2602 27.6987 19.1811C27.6149 19.1021 27.5478 19.0072 27.501 18.9019C27.4542 18.7967 27.4288 18.6832 27.4262 18.5681C27.4733 17.8366 27.4397 17.1022 27.3262 16.3781Z" fill="#FF9820" stroke="#1B383C" stroke-width="2" stroke-miterlimit="10"/>
<path d="M59.3361 90.5881C61.1861 95.9481 64.7161 100.928 69.7961 103.138C73.1861 104.608 76.9761 104.748 80.6661 104.748C88.8233 104.723 96.9668 104.078 105.026 102.818C111.526 101.818 118.026 101.658 123.096 96.6181C126.293 93.3913 128.253 89.1439 128.636 84.6181C128.794 81.8272 128.568 79.0278 127.966 76.2981C127.336 72.9981 126.396 69.7581 125.526 66.5581C114.356 66.9881 102.756 70.2081 91.5261 71.4181C80.2961 72.6281 69.0261 73.4781 57.7461 74.0081C57.4261 74.0081 57.0261 74.1081 56.9461 74.4281C56.8661 74.7481 57.4961 85.2281 59.3361 90.5881Z" fill="#D9D9D9" stroke="#1B383C" stroke-width="2" stroke-miterlimit="10"/>
<path d="M52.3962 69.8081V69.3681C52.3484 68.9347 52.474 68.5 52.7457 68.159C53.0174 67.8179 53.4131 67.5983 53.8462 67.5481L66.4862 66.2281V66.1381C66.394 65.3909 66.5547 64.6344 66.9425 63.9892C67.3304 63.344 67.9231 62.8472 68.6262 62.5781C69.9918 62.097 71.4421 61.9029 72.8862 62.0081C84.6062 62.0881 96.0962 58.8481 107.636 56.7081C109.598 56.2104 111.642 56.132 113.636 56.4781C115.206 56.8481 117.826 58.8181 118.406 60.7581L128.006 59.7581C128.219 59.7347 128.433 59.7546 128.638 59.8166C128.842 59.8786 129.032 59.9814 129.196 60.1188C129.359 60.2562 129.493 60.4253 129.59 60.616C129.686 60.8067 129.743 61.0149 129.756 61.2281L130.166 65.7481C130.206 66.1804 130.076 66.6111 129.803 66.949C129.53 67.2868 129.137 67.5053 128.706 67.5581L54.5062 75.3581C54.2933 75.3759 54.079 75.3514 53.8757 75.286C53.6723 75.2206 53.4838 75.1157 53.3212 74.9772C53.1585 74.8387 53.0249 74.6694 52.9279 74.4791C52.831 74.2887 52.7726 74.0811 52.7562 73.8681C52.7776 72.5059 52.657 71.1453 52.3962 69.8081Z" fill="#FF9820" stroke="#1B383C" stroke-width="2" stroke-miterlimit="10"/>
<path d="M78.1862 90.8181C78.461 91.9009 78.8533 92.9505 79.3562 93.9481C79.6327 94.5777 80.0501 95.1353 80.5762 95.5781C81.8462 96.5781 83.7062 96.1081 85.0062 95.2081C86.1675 94.4059 87.0845 93.2985 87.6562 92.0081C89.3362 88.0081 89.0262 80.0081 83.4162 79.2881C79.9162 78.8481 78.1362 83.4281 77.8262 86.2881C77.6716 87.8074 77.7935 89.3422 78.1862 90.8181Z" fill="white" stroke="#1B383C" stroke-width="2" stroke-miterlimit="10"/>
<path d="M96.4064 90.5979C96.5678 90.9119 96.7587 91.2099 96.9764 91.4879C97.5034 92.2049 98.2122 92.7683 99.0296 93.1198C99.847 93.4714 100.743 93.5985 101.626 93.4879C102.454 93.2806 103.222 92.8809 103.866 92.3215C104.511 91.762 105.015 91.0585 105.336 90.2679C105.95 88.6697 106.288 86.9791 106.336 85.2679C106.636 81.8079 104.926 77.7279 101.116 76.9179C97.8064 76.2079 96.8564 78.5479 96.2464 81.2179C95.7911 82.9305 95.5228 84.6875 95.4464 86.4579C95.4241 87.8955 95.7537 89.3168 96.4064 90.5979Z" fill="white" stroke="#1B383C" stroke-width="2" stroke-miterlimit="10"/>
<path d="M104.416 43.148C104.416 46.778 105.416 50.538 108.016 52.958C109.839 54.4699 111.953 55.5929 114.226 56.258C119.147 58.0037 124.195 59.3677 129.326 60.338C133.456 61.118 137.406 62.438 141.536 60.488C144.144 59.2396 146.232 57.1165 147.436 54.488C148.134 52.8433 148.602 51.1104 148.826 49.338C149.156 47.218 149.286 45.068 149.446 42.948C142.626 40.808 134.946 40.258 127.946 38.568C120.946 36.878 113.946 34.938 107.026 32.818C106.836 32.758 106.576 32.718 106.456 32.898C106.336 33.078 104.456 39.528 104.416 43.148Z" fill="#D9D9D9" stroke="#1B383C" stroke-width="2" stroke-miterlimit="10"/>
<path d="M104.706 29.1481L104.776 28.8681C104.801 28.7308 104.855 28.6003 104.934 28.485C105.012 28.3698 105.114 28.2723 105.233 28.1988C105.352 28.1253 105.485 28.0775 105.623 28.0585C105.761 28.0394 105.902 28.0495 106.036 28.0881L113.926 30.0081C113.931 29.9883 113.931 29.9678 113.926 29.9481C114.03 29.487 114.281 29.0725 114.642 28.7674C115.003 28.4624 115.454 28.2835 115.926 28.2581C116.868 28.2683 117.797 28.4726 118.656 28.8581C125.656 31.4281 133.306 31.9381 140.726 33.1281C142.009 33.2573 143.251 33.6488 144.376 34.2781C144.947 34.7028 145.421 35.2445 145.766 35.8671C146.111 36.4896 146.319 37.1787 146.376 37.8881L152.376 39.3381C152.511 39.3679 152.638 39.4253 152.75 39.5067C152.861 39.5881 152.955 39.6917 153.024 39.811C153.094 39.9303 153.138 40.0627 153.154 40.1999C153.169 40.3371 153.157 40.4761 153.116 40.6081L152.396 43.4181C152.325 43.6858 152.153 43.9157 151.916 44.0593C151.68 44.2029 151.396 44.2491 151.126 44.1881L104.786 32.9381C104.651 32.9082 104.524 32.8508 104.412 32.7694C104.301 32.688 104.207 32.5844 104.138 32.4651C104.068 32.3458 104.024 32.2134 104.009 32.0762C103.993 31.939 104.005 31.8001 104.046 31.6681C104.353 30.8534 104.575 30.0088 104.706 29.1481Z" fill="#FF9820" stroke="#1B383C" stroke-width="2" stroke-miterlimit="10"/>
<path d="M56.0761 54.1081C57.6761 58.1081 60.5261 61.7281 64.4461 63.2081C67.1211 64.0446 69.9405 64.317 72.7261 64.0081C78.9011 63.6962 85.0428 62.9072 91.0961 61.6481C95.9661 60.6481 100.886 60.2981 104.526 56.2981C106.819 53.7518 108.146 50.482 108.276 47.0581C108.287 44.9413 108.015 42.8325 107.466 40.7881C106.866 38.3181 106.036 35.9081 105.256 33.5181C96.8261 34.2581 88.1761 37.1181 79.7461 38.4481C71.3161 39.7781 62.7461 40.7981 54.2561 41.5981C54.0161 41.5981 53.7161 41.6981 53.6661 41.9381C53.6161 42.1781 54.4861 50.1181 56.0761 54.1081Z" fill="#D9D9D9" stroke="#1B383C" stroke-width="2" stroke-miterlimit="10"/>
<path d="M50.0261 38.658V38.318C49.9709 37.9971 50.0452 37.6675 50.2327 37.4013C50.4201 37.1351 50.7054 36.9541 51.0261 36.898L60.5261 35.428C60.5261 35.428 60.5261 35.378 60.5261 35.358C60.4316 34.7951 60.5278 34.2168 60.7996 33.7149C61.0714 33.2131 61.5031 32.8164 62.0261 32.588C63.0521 32.1649 64.157 31.9671 65.2661 32.008C74.1261 31.638 82.6961 28.758 91.3461 26.708C92.8061 26.2667 94.342 26.1339 95.8561 26.318C96.663 26.5372 97.4152 26.9226 98.0645 27.4496C98.7137 27.9765 99.2456 28.6334 99.6261 29.378L106.836 28.268C106.992 28.2423 107.152 28.2479 107.307 28.2844C107.461 28.3208 107.606 28.3875 107.734 28.4804C107.863 28.5734 107.971 28.6909 108.054 28.826C108.137 28.9612 108.192 29.1114 108.216 29.268L108.696 32.668C108.743 32.9877 108.666 33.3135 108.48 33.5778C108.294 33.8421 108.013 34.0247 107.696 34.088L51.8661 42.768C51.7057 42.7904 51.5424 42.7807 51.3858 42.7393C51.2292 42.698 51.0823 42.6259 50.9539 42.5272C50.8254 42.4286 50.7179 42.3053 50.6376 42.1647C50.5573 42.024 50.5058 41.8687 50.4861 41.708C50.4398 40.678 50.2856 39.6558 50.0261 38.658Z" fill="#FF9820" stroke="#1B383C" stroke-width="2" stroke-miterlimit="10"/>
<path d="M81.2462 81.228C81.9082 80.671 82.7513 80.3758 83.6162 80.398C84.2987 80.3256 84.9821 80.527 85.5162 80.958C85.9857 81.5377 86.2401 82.2621 86.2362 83.008C86.3462 84.208 86.3962 85.568 85.5962 86.468C84.5062 87.688 82.1562 89.088 80.9962 87.648C79.8362 86.208 79.8862 82.518 81.2462 81.228Z" fill="#1B383C" stroke="#1B383C" stroke-width="2" stroke-miterlimit="10"/>
<path d="M97.566 83.078C97.176 81.538 96.926 79.658 98.096 78.588C98.8073 78.0262 99.7017 77.7483 100.606 77.808C101.342 77.7688 102.075 77.9313 102.726 78.278C103.128 78.5461 103.47 78.8939 103.731 79.2999C103.993 79.7059 104.168 80.1614 104.246 80.638C104.404 81.5866 104.428 82.5528 104.316 83.508C104.313 83.7781 104.262 84.0455 104.166 84.298C103.971 84.626 103.682 84.8875 103.336 85.048C100.506 86.668 98.416 86.388 97.566 83.078Z" fill="#1B383C" stroke="#1B383C" stroke-width="2" stroke-miterlimit="10"/>
<path d="M57.8862 87.4079C46.8862 86.5179 35.8862 83.4079 26.6162 77.4079C17.3462 71.4079 9.68622 62.6479 6.02622 52.2079C3.82622 45.7679 3.12622 38.9079 2.44622 32.1279L1.12622 19.0079C0.855779 17.4367 1.02181 15.8213 1.60622 14.3379C2.02153 13.5677 2.60802 12.903 3.32055 12.3951C4.03309 11.8871 4.85267 11.5494 5.71622 11.4079C6.07894 11.2654 6.47478 11.2292 6.85734 11.3036C7.23991 11.3779 7.59334 11.5598 7.87622 11.8279C8.08124 12.1416 8.17621 12.5144 8.14622 12.8879C8.07328 13.8312 7.75999 14.7401 7.23622 15.5279C6.23968 17.2013 4.9127 18.6542 3.33622 19.7979" stroke="#1B383C" stroke-width="2" stroke-miterlimit="10" stroke-linecap="round"/>
<path d="M127.586 78.828C141.926 71.828 148.886 55.218 151.696 39.498C153.908 27.1455 154.315 14.5375 152.906 2.06801C152.177 1.43444 151.257 1.06119 150.293 1.00689C149.328 0.952592 148.373 1.22031 147.576 1.76801C146.735 2.31078 146.062 3.07757 145.633 3.9821C145.203 4.88662 145.035 5.893 145.146 6.88801C145.196 7.57332 145.442 8.22972 145.856 8.77801C146.098 9.05209 146.393 9.27439 146.723 9.43151C147.054 9.58864 147.412 9.67735 147.777 9.69229C148.143 9.70724 148.507 9.64812 148.849 9.51849C149.191 9.38886 149.503 9.19141 149.766 8.93801" stroke="#1B383C" stroke-width="2" stroke-miterlimit="10" stroke-linecap="round"/>
<path d="M86.546 17.868C87.066 21.288 88.646 24.668 91.456 26.538C93.4014 27.6859 95.5635 28.418 97.806 28.688C102.71 29.5675 107.675 30.0689 112.656 30.188C116.656 30.288 120.596 30.908 124.176 28.438C126.443 26.8548 128.081 24.526 128.806 21.858C129.201 20.1982 129.372 18.4932 129.316 16.788C129.316 14.788 129.086 12.698 128.906 10.688C122.156 9.68803 114.836 10.398 107.976 9.89803C101.116 9.39803 94.226 8.64803 87.396 7.72803C87.206 7.72803 86.946 7.72803 86.866 7.88803C86.381 11.1918 86.2737 14.54 86.546 17.868Z" fill="#D9D9D9" stroke="#1B383C" stroke-width="2" stroke-miterlimit="10"/>
<path d="M84.6363 4.6381V4.3681C84.6543 4.10449 84.7758 3.85871 84.9745 3.68446C85.1731 3.5102 85.4326 3.42163 85.6963 3.4381L93.4563 4.0081C93.4563 4.0081 93.4563 4.0081 93.4563 3.9481C93.4837 3.49079 93.6628 3.05568 93.9653 2.71158C94.2677 2.36747 94.6763 2.13401 95.1263 2.0481C96.0124 1.9065 96.9182 1.95078 97.7863 2.1781C104.786 3.5081 112.066 2.8081 119.226 2.7781C120.456 2.6975 121.689 2.87462 122.846 3.2981C123.441 3.61479 123.961 4.05397 124.373 4.58663C124.785 5.11928 125.079 5.73329 125.236 6.3881L131.106 6.8281C131.368 6.85347 131.61 6.98108 131.778 7.18326C131.947 7.38543 132.029 7.64587 132.006 7.9081L131.756 10.6581C131.747 10.7895 131.713 10.9179 131.654 11.0359C131.595 11.1538 131.514 11.2591 131.415 11.3455C131.315 11.4319 131.2 11.4978 131.075 11.5394C130.95 11.5811 130.818 11.5976 130.686 11.5881L85.3063 8.1981C85.0461 8.17028 84.8073 8.04162 84.6409 7.83972C84.4745 7.63782 84.3939 7.37876 84.4163 7.1181C84.5738 6.30107 84.6475 5.4701 84.6363 4.6381Z" fill="#FF9820" stroke="#1B383C" stroke-width="2" stroke-miterlimit="10"/>
<path d="M101.936 103.518L107.506 129.008C108.023 131.062 108.338 133.162 108.446 135.278C108.362 138.186 107.884 141.069 107.026 143.848L103.786 156.318C103.216 158.508 102.646 160.818 103.196 163.018C103.746 165.218 105.856 167.208 108.086 166.808" stroke="#1B383C" stroke-width="2" stroke-miterlimit="10" stroke-linecap="round"/>
<path d="M86.2864 105.628L90.2864 128.198C90.6457 129.552 90.6663 130.974 90.3464 132.338C89.5464 134.748 86.8764 135.918 84.4864 136.788L62.7064 144.788C62.303 148.037 63.061 151.324 64.8464 154.068" stroke="#1B383C" stroke-width="2" stroke-miterlimit="10" stroke-linecap="round"/>
<path d="M100.716 99.148C102.382 99.3326 104.067 99.0639 105.593 98.3705C107.119 97.677 108.43 96.5844 109.386 95.208" stroke="#1B383C" stroke-width="2" stroke-miterlimit="10"/>
</svg>
